app/assets/images/heroicons/solid/hand-thumb-down.svg

<svg width="24" height="24" viewBox="0 0 24 24" fill="none" xmlns="http://www.w3.org/2000/svg">
<path d="M15.7303 5.5L16.7647 5.5C17.5455 6.68343 18 8.10114 18 9.625C18 11.1489 17.5455 12.5666 16.7647 13.75L16.6174 13.75C15.8111 13.75 15.0835 14.1958 14.5859 14.8303C13.8127 15.8162 12.8383 16.6366 11.7245 17.2298C11.0023 17.6144 10.3757 18.1857 10.0719 18.9454C9.85924 19.4769 9.75 20.0441 9.75 20.6166V21.25C9.75 21.6642 9.41421 22 9 22C7.75736 22 6.75 20.9926 6.75 19.75C6.75 18.5984 7.00956 17.5074 7.47337 16.5323C7.73896 15.974 7.36638 15.25 6.74809 15.25L3.62227 15.25C2.59564 15.25 1.6767 14.556 1.56801 13.5351C1.52306 13.1129 1.5 12.6841 1.5 12.25C1.5 9.40238 2.49188 6.78642 4.149 4.72878C4.5366 4.24749 5.13581 4 5.75377 4L9.76975 4C10.2534 4 10.7339 4.07798 11.1928 4.23093L14.3072 5.26908C14.7661 5.42203 15.2466 5.5 15.7303 5.5Z" fill="#0F172A"/>
<path d="M21.6685 14.0229C22.2052 12.6611 22.5 11.1775 22.5 9.625C22.5 8.40493 22.3179 7.22738 21.9794 6.11805C21.7201 5.26802 20.8958 4.75 20.0071 4.75L19.0993 4.75C18.6538 4.75 18.3786 5.24827 18.5758 5.6478C19.1675 6.84708 19.5 8.19722 19.5 9.625C19.5 11.3332 19.0241 12.9302 18.1977 14.2907C17.9527 14.6941 18.226 15.25 18.6979 15.25H19.7506C20.5827 15.25 21.3635 14.797 21.6685 14.0229Z" fill="#0F172A"/>
</svg>

<svg xmlns="http://www.w3.org/2000/svg" viewBox="0 0 24 24" fill="currentColor" aria-hidden="true" data-slot="icon">
  <path d="M15.73 5.5h1.035A7.465 7.465 0 0 1 18 9.625a7.465 7.465 0 0 1-1.235 4.125h-.148c-.806 0-1.534.446-2.031 1.08a9.04 9.04 0 0 1-2.861 2.4c-.723.384-1.35.956-1.653 1.715a4.499 4.499 0 0 0-.322 1.672v.633A.75.75 0 0 1 9 22a2.25 2.25 0 0 1-2.25-2.25c0-1.152.26-2.243.723-3.218.266-.558-.107-1.282-.725-1.282H3.622c-1.026 0-1.945-.694-2.054-1.715A12.137 12.137 0 0 1 1.5 12.25c0-2.848.992-5.464 2.649-7.521C4.537 4.247 5.136 4 5.754 4H9.77a4.5 4.5 0 0 1 1.423.23l3.114 1.04a4.5 4.5 0 0 0 1.423.23ZM21.669 14.023c.536-1.362.831-2.845.831-4.398 0-1.22-.182-2.398-.52-3.507-.26-.85-1.084-1.368-1.973-1.368H19.1c-.445 0-.72.498-.523.898.591 1.2.924 2.55.924 3.977a8.958 8.958 0 0 1-1.302 4.666c-.245.403.028.959.5.959h1.053c.832 0 1.612-.453 1.918-1.227Z"/>
</svg>
